X:977
T:Dunmanway Lasses
B:O'Neill's 977
Z:Transcribed by Dan G. Petersen, dangp@post6.tele.dk
M:6/8
L:1/8
K:Em
D|GFG dBG|BAB dBG|GFG dBG|GAG GED|
GFG dBG|BAB dBG|GBG B2A|GED D2:|
d|gfg aga|bge edB|gfg aga|bge e2(g/a/)|
bgg agg|ege dBG|BAB GBA|GEE E2:|


